X:1
T:[ID 1-109a]
T:[ID 1-109a]
T:Bezeichnung standardisiert: Tanz mit mir; Allegro In dieser Quelle auch als: Courant In dieser Quelle auch als: Boure In dieser Quelle auch als: Boure Dantz mit mir In dieser Quelle auch als: Tantz mit mir
T:Urheber unbekannt Erstbeleg: 1773 (Datum in der schriftlichen Quelle) Datum in der hier transkribierten schriftlichen Quelle: 1799
C:Urheber unbekannt
C:Erstbeleg: 1773 (Datum in der schriftlichen Quelle)
C:Datum in der hier transkribierten schriftlichen Quelle: 1799
%%score 1 2
L:1/8
M:2/4
K:C
V:1 treble nm="Violino Primo"
V:2 treble nm="Violino Secondo"
V:1
 ce ed/c/ | df fe/d/ | eg gf/e/ | d/c/B/A/ G/A/B/G/ | ce ed/c/ | df fe/d/ | ed/c/ B/c/d/B/ | %7
"^1)" d4 :: eg gf/e/ | fg a2 | df fe/d/ | ef g2 | ce ed/c/ | df fe/d/ | ed/c/ B/c/d/B/ | c4 :| %16
V:2
 !fermata!Ec cB/A/ | Gd dc/B/ | ce ed/c/ | G2 G/A/B/G/ | Ec cG/E/ | Gd dc/G/ | F/E/F/D/ GF | E4 :: %8
 ce ed/c/ | de f2 | Gd dc/G/ | cd e2 | Ec cG/E/ | Gd dc/G/ | F/E/F/D/ GF | E4 :| %16

